X:760
T:Reel 760
M:4/4
K:Gmaj
L:1/8
 (3def |g>G (3GGG G>B (3BcB |e>A (3AAA e>A (3ABA |e>f (3gfe d>B (3BAG |cABA GBdcBA|GgG (3GGG G>B (3BAB |c>A (3AAA e>A (3AAA |g>f (3gfe d>B (3cBA |Gg2G GA|Bd|g2fg dgbgfg|e>A (3AAA eAAc| (3BcB g>f  (3gfg dgfg| (3efg dB cA (3AAA | (3BcB g>B  (3Bcd  (3BAG |FAfA eA (3AGA |Ggfg fded|e>A (3AGA e2:|
